Sources/FrostedUI/Resources/Icons.xcassets/leaf12.imageset/leaf-12.svg

<svg width="12" height="12" viewBox="0 0 12 12" fill="none" xmlns="http://www.w3.org/2000/svg" data-fui-icon="true">
  <g clip-path="url(#clip0_1123_46)">
    <path
      fill-rule="evenodd"
      clip-rule="evenodd"
      d="M10.865 0.26219C11.1074 0.217858 11.3561 0.295396 11.5303 0.46962C11.7045 0.643843 11.7821 0.892526 11.7378 1.13489L11.7366 1.14112L11.7336 1.15754L11.7219 1.21981C11.7116 1.27402 11.6965 1.35312 11.6768 1.45402C11.6372 1.65578 11.5791 1.94489 11.5044 2.29653C11.3551 2.99904 11.1387 3.95469 10.8706 4.96351C10.6032 5.96959 10.2807 7.04288 9.91748 7.97541C9.56645 8.87661 9.13682 9.75712 8.61366 10.2803C6.89029 12.0037 4.19757 12.1669 2.29054 10.7701L1.53033 11.5303C1.23744 11.8232 0.762563 11.8232 0.46967 11.5303C0.176777 11.2374 0.176777 10.7625 0.46967 10.4696L1.22988 9.7094C-0.166976 7.80237 -0.00371349 5.10966 1.71966 3.38628C2.24282 2.86312 3.12333 2.4335 4.02453 2.08246C4.95706 1.71921 6.03035 1.39674 7.03643 1.12938C8.04525 0.861285 9.00091 0.64484 9.70342 0.495539C10.0551 0.420809 10.3442 0.362709 10.5459 0.323192C10.6468 0.303429 10.7259 0.288302 10.7801 0.278056L10.8424 0.266374L10.8588 0.263334L10.865 0.26219ZM7.553 9.21962C6.41734 10.3553 4.67364 10.5123 3.36979 9.69081L5.06066 7.99994H7.25C7.66421 7.99994 8 7.66415 8 7.24994C8 6.83573 7.66421 6.49994 7.25 6.49994H6.56066L9.03033 4.03027C9.32322 3.73738 9.32322 3.2625 9.03033 2.96961C8.73744 2.67672 8.26256 2.67672 7.96967 2.96961L6.74821 4.19107C6.72137 3.80125 6.39664 3.49335 6 3.49335C5.58579 3.49335 5.25 3.82913 5.25 4.24335V5.68928L4.22844 6.71084L4.24964 6.02306C4.26241 5.60904 3.93713 5.26307 3.52311 5.2503C3.10909 5.23754 2.76312 5.56282 2.75036 5.97684L2.67999 8.25929L2.30913 8.63015C1.48759 7.3263 1.64466 5.5826 2.78032 4.44694C3.06258 4.16468 3.67852 3.82702 4.56897 3.48017C5.42807 3.14552 6.44161 2.83951 7.42168 2.57906C8.399 2.31934 9.32882 2.10865 10.0152 1.96277L10.0431 1.95686L10.0372 1.9847C9.89129 2.67113 9.6806 3.60094 9.42088 4.57826C9.16043 5.55833 8.85442 6.57187 8.51978 7.43097C8.17293 8.32142 7.83526 8.93736 7.553 9.21962Z"
      fill="currentColor"
    />
  </g>
  <defs>
    <clipPath id="clip0_1123_46"><path fill="currentColor" d="M0 0H12V12H0z" /></clipPath>
  </defs>
</svg>

<svg xmlns="http://www.w3.org/2000/svg" width="12" height="12" fill="none" data-fui-icon="true" viewBox="0 0 12 12"><g clip-path="url(#a)"><path fill="currentColor" fill-rule="evenodd" d="M10.865.262a.75.75 0 0 1 .873.873l-.001.006-.003.017-.012.062a46 46 0 0 1-.218 1.077c-.149.702-.365 1.658-.633 2.667-.268 1.006-.59 2.079-.954 3.011-.35.902-.78 1.782-1.303 2.305a4.876 4.876 0 0 1-6.323.49l-.76.76A.75.75 0 1 1 .47 10.47l.76-.76a4.876 4.876 0 0 1 .49-6.324c.523-.523 1.403-.953 2.305-1.304.932-.363 2.005-.685 3.011-.953A56 56 0 0 1 10.78.28l.062-.013.017-.003zM7.553 9.22a3.376 3.376 0 0 1-4.183.47L5.06 8h2.19a.75.75 0 0 0 0-1.5h-.69l2.47-2.47a.75.75 0 0 0-1.06-1.06L6.748 4.19a.75.75 0 0 0-1.498.052V5.69L4.228 6.711l.022-.688a.75.75 0 1 0-1.5-.046l-.07 2.282-.37.371a3.376 3.376 0 0 1 .47-4.183c.283-.282.899-.62 1.789-.967.86-.334 1.873-.64 2.853-.9.977-.26 1.907-.471 2.593-.617l.028-.006-.006.028a54 54 0 0 1-.616 2.593c-.26.98-.567 1.994-.901 2.853-.347.89-.685 1.506-.967 1.789" clip-rule="evenodd"/></g><defs><clipPath id="a"><path fill="currentColor" d="M0 0h12v12H0z"/></clipPath></defs></svg>
